!!!OTL: Zwei liebten sich aus reinem Sinn (2-10), S. 22
!!!id: K1103
**kern
*clefG2
*k[f#]
*G:
{8d
=1
8g
8a
4b
4b
=2
8a
8g
4a}
8r
=3
{8g
=4
8f#
8g
4cc
4cc
=5
8b
8a
4b}
8r
=6
{8dd
=7
8dd
8dd
8.cc
16b
8a
8dd
=8
8dd
8dd
8.b
16a
8g}
=9
{8b
=10
8b
8b
8a
8b
8cc
8ee
=11
8dd
16dd
16cc
4b}
8r
=12
{8dd
=13
8dd
8dd
8.cc
16b
8a
8dd
=14
8dd
8dd
8.b
16a
8g}
=15
{8b
=16
8b
8b
8a
8b
8cc
8ee
=17
8dd
16dd
16cc
4b}
8r
==
*-
!!!minrhy: 16
!!!meters: 3/4 ]  ZZ[6
!!!cut: Zwei liebten sich aus reinem Sinn (2-10), S. 22
!!!reg: Luxemburg
!!!trd: KINTZELE, Guillaume: An der Ucht, Bd. 2, Luxemburg 1927
!!!rhy1: X_  X_X_X__X__  X_X_X__0   (x2)
!!!rhy2: X_  X_X_X__X__  X_X_X__0
!!!key: K1103  16  G 3/4 ]  ZZ[6
!!!mod: HEPTATONIK IONISCH]  AMBITUS[9
!!!kad: 231313
!!!akz: 12_-73_55_35_55_35_
!!!fot: 'a__b__c__d__c__d__
!!!for: 'a__a__b__c__b__c__
!!!fok: '/__/__\__^__\__^__
!! PHRAS[AUFTAKTIG]
!!!fkt: Trennung, Tod
!!!bem: in der Quelle mit einer 2. Stimme versehen
!! KINTZELE
!! PR[34] 2K[2] 2G[3] 3K[6] 3G[0] 4A[0] 4Ü[0] 5A[3] 6K[0] 6G[5]
!! 7K[2] 7G[0] 8A[0] MEHR[0] SI[21] ABS[62] SR[5] SP[16]
!! ST[16] 2k[8] 2g[23] 3k[10] 3g[3] 4d[2] 4ü[0] 5d[0] 6k[0] 6g[0]
!! 7k[0] 7g[0] 8d[0] mehr[0] si[45] dm[-24] sr[31] sp[15]
!! 1F[51] 2F[46] 3F[0] 4F[0] LF[0] 2P[3] 3P[0] 4P[0] TRI[0] DF[3] AB[63]
!! TF[0] U3K[0] U3[0] U4[0] U4Ü[0] U5[2] U6K[0] U6[0] U7K[0] U7[3]
!! N1[19] N2K[0] N2[8] N3K[0] N3[11] N4[17] N4Ü[0] N5[22] N6K[0] N6[17]
!!!n7k: 0] N7[0] O1[0] O2K[0] O2[0] O3K[0] O3[0] HÖ[0
